X:1
T:Title
%%score { ( 1 3 ) | ( 2 4 ) }
L:1/8
M:6/4
K:Eb
V:1 treble nm="Grand Piano"
V:3 treble 
V:2 bass 
V:4 bass 
V:1
 z6 z4[Q:1/4=132] G>F- | F<E- E<E- E<E- E<E- E<E- E/EE/- | %2
 E<G- G2- G<G- G<[EGB]- [EGB]2- [EGB]/ z/ z | %3
 z/ [EAc][EAc]/- [EAc]2- [EAc]/ z/ z z/ [CEA]3/2- [CEA]2- [CEA]<[Ec]- | %4
[M:5/4] [Ec]<B- B2- B4- B/ z/ z |[M:1/4] z/ GF/- |[M:6/4] F<E- E<E- E<E- E<E- E<E- E/EE/- | %7
 E<G- G2- G<G- G<G- G2- G-<[Ge-] | e/dd/- d2- d/ z/ z z/ d3/2- d2- d<c- | %9
[M:5/4] c<[DB]- [DB]2- [DB]4- [DB]/ z/ z |[M:1/4] z/ B3/2- |[M:6/4] B<B- B<B- B<B- B<B- B<B- B<B- | %12
 B<B- B2- B<A- A<G- G2- G<G- | G<c- c<c- c<c- c<c- c<c- c<c- | c<c- c2- c<B- B<A- A2- A<A- | %15
 A<[Fd]- [Fd]<[Fd]- [Fd]<[Fd]- [Fd]<d- d<d- d<d- | %16
 d<[Ad]- [Ad]<[Ac]- [Ac]<[Ad]- [Ad]<[Ge]- [Ge]4- | %17
 [Ge]/[GB][GB]/- [GB]2- [GB]/ z/ z z/ [B,DG]3/2- [B,DG]2- [B,DG]<[A,DF]- | %18
 [A,DF]<[G,E]- [G,E]4- [G,E]<.B, z/ .C3/2 z/ .D3/2 | %19
 z/[K:bass] E3/2- E4- E<[K:treble]G- G2- G/ z/ z | z/ F3/2- F4- F6- | %21
 F<[K:bass]E- E4- E<[K:treble]G- G2- G/ z/ z | z/ F3/2- F4- F6- | %23
 F<G- G2- G/ z/ z z/ c3/2- c2- c/ z/ z | z/ B3/2- B4- B<G- G2- G/ z/ z | %25
 z/ c3/2- c4- c<B- B2- B/ z/ z | z/ F3/2- F4- F/ z/ z z2 z2 | %27
 z/[K:bass] E3/2- E4- E<[K:treble]G- G2- G/ z/ z | z/ F3/2- F4- F6- | %29
 F<[K:bass]E- E4- E<[K:treble]G- G2- G/ z/ z | z/ c3/2- c4- c6- | c<d- d4- d<e- e2- e/ z/ z | %32
 z/ e3/2- e2- e/ z/ z z/ c3/2- c2- c/ z/ z | z/ G3/2- G2- G/ z/ z z6 |[M:5/4] z10 | z10 |] %36
V:2
 z6 z4 [E,B,E]>[E,A,B,]- | %1
 [E,A,B,]<[E,G,B,]- [E,G,B,]<[E,G,B,]- [E,G,B,]<[E,G,B,]- [E,G,B,]<[E,G,B,]- [E,G,B,]<[E,G,B,]- [E,G,B,]/[E,G,B,][E,G,B,]/- | %2
 [E,G,B,]<[E,B,E]- [E,B,E]2- [E,B,E]<[E,B,E]- [E,B,E]<E,- E,2- E,/ z/ z | %3
 z/ A,,A,,/- A,,2- A,,/ z/ z z/ A,,3/2- A,,2- A,,<[A,,A,]- | %4
[M:5/4] [A,,A,]<[E,G,E]- [E,G,E]2- [E,G,E]4- [E,G,E]/ z/ z |[M:1/4] z/ [E,B,E][E,A,B,]/- | %6
[M:6/4] [E,A,B,]<[E,G,B,]- [E,G,B,]<[E,G,B,]- [E,G,B,]<[E,G,B,]- [E,G,B,]<[E,G,B,]- [E,G,B,]<[E,G,B,]- [E,G,B,]/[E,G,B,][E,G,B,]/- | %7
 [E,G,B,]<[E,B,E]- [E,B,E]2- [E,B,E]<[E,B,E]- [E,B,E]/ z/ z z2 z/ B,3/2- | %8
 B,/[F,B,F][F,B,F]/- [F,B,F]2- [F,B,F]/ z/ z z/ [F,=A,F]3/2- [F,A,F]2- [F,A,F]<[F,A,E]- | %9
[M:5/4] [F,A,E]<[B,,B,]- [B,,B,]2- [B,,B,]4- [B,,B,]/ z/ z |[M:1/4] z/[K:treble] [B,D]3/2- | %11
[M:6/4] [B,D]<[A,B,F]- [A,B,F]<[A,B,F]- [A,B,F]<[A,B,F]- [A,B,F]<[K:bass][G,B,E]- [G,B,E]<[G,B,E]- [G,B,E]<[G,B,E]- | %12
 [G,B,E]<[F,B,D]- [F,B,D]2- [F,B,D]<[F,B,D]- [F,B,D]<[E,B,E]- [E,B,E]2- [E,B,E]<G,- | %13
 G,<[K:treble][B,CG]- [B,CG]<[B,CG]- [B,CG]<[B,CG]- [B,CG]<[A,CF]- [A,CF]<[A,CF]- [A,CF]<[A,CF]- | %14
 [A,CF]<[K:bass][G,C=E]- [G,CE]2- [G,CE]<[G,CE]- [G,CE]<[F,CF]- [F,CF]2- [F,CF]<[F,CF]- | %15
 [F,CF]<[B,,B,]- [B,,B,]<[B,,B,]- [B,,B,]<[B,,B,]- [B,,B,]<[K:treble][A,B,F]- [A,B,F]<[A,B,F]- [A,B,F]<[A,B,F]- | %16
 [A,B,F]<[K:bass][F,B,]- [F,B,]<[F,B,]- [F,B,]<[F,B,]- [F,B,]<B,- B,2- B,-<[G,B,]- | %17
 [G,B,]/B,B,/- B,2- B,/ z/ z z/ B,,3/2- B,,2- B,,<B,,- | B,,<E,- E,4- E,<.B,, z/ .C,3/2 z/ .D,3/2 | %19
 z2 z/ G,3/2- G,<G,- G,/ z/ z z/ B,3/2- B,<G,,- | G,,2 z/ B,3/2- B,<B,- B,/ z/ z z/ A,3/2- A,<A,- | %21
 A,2 z/ G,3/2- G,<G,- G,/ z/ z z/ B,3/2- B,<G,,- | %22
 G,,2 z/ B,3/2- B,<B,- B,/ z/ z z/ B,3/2- B,<B,- | %23
 B,2 z/ B,3/2- B,<[EG]- [EG]/ z/ z z/ E3/2- E<C,- | C,2 z/ E3/2- E<E- E/ z/ z z/ B,3/2- B,<[EG]- | %25
 [EG]2 z/ E3/2- E<E- E/ z/ z z/ E3/2- E<[B,E]- | [B,E]2 z/ B,3/2- B,<B,- B,<C- C<B,- B,<A,- | %27
 A,2 z/ G,3/2- G,<G,- G,/ z/ z z/ B,3/2- B,<G,,- | %28
 G,,2 z/ B,3/2- B,<B,- B,/ z/ z z/ A,3/2- A,<A,- | %29
 A,2 z/ G,3/2- G,<G,- G,/ z/ z z/ B,3/2- B,<[EG]- | [EG]2 z/ E3/2- E<E- E/ z/ z z/ E3/2- E<E- | %31
 E2[K:treble] z/ A3/2- A<A- A/ z/ z z/ A3/2- A<[AB]- | %32
 [AB]2 z/ G3/2- G<[EG]- [EG]/[K:bass] z/ z z/ E3/2- E<[CF]- | %33
 [CF]2 z/ B,3/2- B,/ z/ z z/ [B,,B,]3/2- [B,,B,]2- [B,,B,]<[B,,A,B,]- | %34
[M:5/4] [B,,A,B,]<[E,G,B,]- [E,G,B,]2- [E,G,B,]6- | [E,G,B,]2 z2 z2 z4 |] %36
V:3
 x12 | x12 | x12 | x12 |[M:5/4] x10 |[M:1/4] x2 |[M:6/4] x12 | z6 z/ [EB]3/2- [EB]2- [EB]/ z/ z | %8
 x12 |[M:5/4] x10 |[M:1/4] x2 |[M:6/4] x12 | x12 | x12 | x12 | x12 | x12 | x12 | x12 | %19
 z2[K:bass] z/ B,3/2- B,<B,- B,/[K:treble] z/ z z/ E3/2- E<[B,EB]- | %20
 [B,EB]2 z/ D3/2- D<D- D/ z/ z z/ [B,D]3/2- [B,D]<[B,D]- | %21
 [B,D]2[K:bass] z/ B,3/2- B,<B,- B,/[K:treble] z/ z z/ E3/2- E<[B,EB]- | %22
 [B,EB]2 z/ D3/2- D<D- D/ z/ z z/ D3/2- D<D- | D2 z/ E3/2- E<B- B/ z/ z z/ A3/2- A<[EAe]- | %24
 [EAe]2 z/ G3/2- G<G- G/ z/ z z/ E3/2- E<B- | B2 z/ A3/2- A<A- A/ z/ z z/ G3/2- G<G- | %26
 G2 z/ D3/2- D<D- D<A- A<G- G<F- | %27
 F2[K:bass] z/ B,3/2- B,<B,- B,/[K:treble] z/ z z/ E3/2- E<[B,EB]- | %28
 [B,EB]2 z/ D3/2- D<D- D/ z/ z z/ [B,D]3/2- [B,D]<[B,D]- | %29
 [B,D]2[K:bass] z/ B,3/2- B,<B,- B,/[K:treble] z/ z z/ E3/2- E<B- | %30
 B2 z/ A3/2- A<A- A/ z/ z z/ A3/2- A<A- | A2 z/ B3/2- B<B- B/ z/ z z/ B3/2- B<f- | %32
 f2 z/ B3/2- B<B- B/ z/ z z/ A3/2- A<A- | A2 z/ E3/2- E<B,- B,<[DG]- [DG]2- [DG]<F- | %34
[M:5/4] F<E- E2- E6- | E2 z2 z2 z4 |] %36
V:4
 x12 | x12 | x12 | x12 |[M:5/4] x10 |[M:1/4] x2 |[M:6/4] x12 | z6 z/ E,3/2- E,4 | x12 | %9
[M:5/4] x10 |[M:1/4] x/[K:treble] x3/2 |[M:6/4] x13/2[K:bass] x11/2 | x12 | x/[K:treble] x23/2 | %14
 x/[K:bass] x23/2 | x13/2[K:treble] x11/2 | z6[K:bass] z/ E,3/2- E,2- E,/ z/ z | x12 | x12 | %19
 z/ E,3/2- E,4- E,<E,- E,2- E,/ z/ z | z/ B,,3/2- B,,4- B,,<B,,- B,,4- | %21
 B,,<E,- E,4- E,<E,- E,2- E,/ z/ z | z/ B,,3/2- B,,4- B,,<B,,- B,,4- | %23
 B,,<E,- E,4- E,<A,,- A,,2- A,,/ z/ z | z/ E,3/2- E,4- E,<E,- E,4- | E,<E,- E,4- E,<E,- E,4- | %26
 E,<B,,- B,,4- B,,/ z/ z z2 z2 | z/ E,3/2- E,4- E,<E,- E,2- E,/ z/ z | %28
 z/ B,,3/2- B,,4- B,,<B,,- B,,4- | B,,<E,- E,4- E,<E,- E,4- | E,<A,,- A,,4- A,,<A,,- A,,4- | %31
 A,,<[K:treble]F,- F,4- F,<B,,- B,,4- | B,,<E,- E,4- E,<[K:bass]A,,- A,,4- | %33
 A,,<B,,- B,,4- B,,/ z/ z z2 z2 |[M:5/4] x10 | x10 |] %36

